!!!SOCIAL_FUNCTION:	songs used in the treatment of the sick
!!!PDT:	1929
!!!OTL: No_70_Song_of_the_Dawn.krn
!!!REG: Southwest
!!!LANG: Non-Tone
!!!LING_GROUP: Uto-Aztecan
**kern
*staff1
=1-
*clefF4
*k[f#]
*M2/4
4B\
8.B\L
16A\Jk
=2
4G\
4G\
=3
4B\
8.B\L
16A\Jk
=4
8.G\L
16D\Jk
8.E\L
16D\Jk
=5
4E\
8.D\L
16D\Jk
=6
8.BB/L
32BB/Jkk
32r
8.E\L
16E\Jk
=7
16E\LK
8.E\J
8.E\L
16D\Jk
=8
4E\
8.D\L
16D\Jk
=9
8BB/
8r
12E\L
12D\
12E\J
=10
8E\L
8D\J
8BB/
8r
=11||
*M3/4
8E\L
8D\J
16D\LL
16D\J
8D\J
16D\LL
16D\
16D\
16BB\JJ
=12
16E\LL
16E\
16E\
[16E\JJ
4E\]
4r
==
*-
